app/assets/images/organisation_methode.svg

<svg width="64" height="64" viewBox="0 0 64 64" fill="none" xmlns="http://www.w3.org/2000/svg">
<circle cx="32" cy="32" r="32" fill="#6E84FE"/>
<circle cx="18" cy="47" r="4" transform="rotate(-90 18 47)" fill="white"/>
<circle cx="18" cy="35" r="4" transform="rotate(-90 18 35)" fill="white"/>
<circle cx="18" cy="23" r="4" transform="rotate(-90 18 23)" fill="white"/>
<rect x="28" y="45" width="8" height="8" rx="2" transform="rotate(-90 28 45)" fill="white"/>
<rect x="28" y="33" width="8" height="8" rx="2" transform="rotate(-90 28 33)" fill="white"/>
<rect x="28" y="21" width="8" height="8" rx="2" transform="rotate(-90 28 21)" fill="white"/>
<path d="M44.4656 40.5C44.8505 39.8333 45.8127 39.8333 46.1976 40.5L50.5278 48C50.9127 48.6667 50.4315 49.5 49.6617 49.5H41.0015C40.2317 49.5 39.7506 48.6667 40.1355 48L44.4656 40.5Z" fill="white"/>
<path d="M44.4656 27C44.8505 26.3333 45.8127 26.3333 46.1976 27L50.5278 34.5C50.9127 35.1667 50.4315 36 49.6617 36H41.0015C40.2317 36 39.7506 35.1667 40.1355 34.5L44.4656 27Z" fill="white"/>
<path d="M44.4656 13.5C44.8505 12.8333 45.8127 12.8333 46.1976 13.5L50.5278 21C50.9127 21.6667 50.4315 22.5 49.6617 22.5H41.0015C40.2317 22.5 39.7506 21.6667 40.1355 21L44.4656 13.5Z" fill="white"/>
</svg>

<svg width="64" height="64" fill="none" xmlns="http://www.w3.org/2000/svg"><circle cx="32" cy="32" r="32" fill="#6E84FE"/><circle cx="18" cy="47" r="4" transform="rotate(-90 18 47)" fill="#fff"/><circle cx="18" cy="35" r="4" transform="rotate(-90 18 35)" fill="#fff"/><circle cx="18" cy="23" r="4" transform="rotate(-90 18 23)" fill="#fff"/><rect x="28" y="45" width="8" height="8" rx="2" transform="rotate(-90 28 45)" fill="#fff"/><rect x="28" y="33" width="8" height="8" rx="2" transform="rotate(-90 28 33)" fill="#fff"/><rect x="28" y="21" width="8" height="8" rx="2" transform="rotate(-90 28 21)" fill="#fff"/><path d="M44.466 40.5a1 1 0 011.732 0l4.33 7.5a1 1 0 01-.866 1.5h-8.66a1 1 0 01-.867-1.5l4.33-7.5zM44.466 27a1 1 0 011.732 0l4.33 7.5a1 1 0 01-.866 1.5h-8.66a1 1 0 01-.867-1.5l4.33-7.5zM44.466 13.5a1 1 0 011.732 0l4.33 7.5a1 1 0 01-.866 1.5h-8.66a1 1 0 01-.867-1.5l4.33-7.5z" fill="#fff"/></svg>
